icons/stackshare-fill.svg

<svg width="24" height="24" fill="none" xmlns="http://www.w3.org/2000/svg"><g clip-path="url(#a)"><path d="M21 3a1 1 0 0 1 1 1v16a1 1 0 0 1-1 1H3a1 1 0 0 1-1-1V4a1 1 0 0 1 1-1h18Zm-4.208 2.621a2.223 2.223 0 0 0-2.133 1.6h-1.998l-2.46 4.185H8.763a2.22 2.22 0 1 0 0 1.242h1.471l2.417 4.133h2.018a2.221 2.221 0 1 0 0-1.243h-1.317l-2.056-3.536 2.053-3.538h1.31a2.223 2.223 0 1 0 2.133-2.843Zm.011 9.427a1.169 1.169 0 1 1-1.144 1.395s-.031-.227 0-.454c.106-.535.578-.94 1.144-.94v-.001Zm-10.152-4.21a1.17 1.17 0 0 1 1.168 1.168 1.168 1.168 0 0 1-2.335 0c0-.644.523-1.167 1.167-1.167v-.001Zm10.15-4.209a1.169 1.169 0 0 1 0 2.335 1.17 1.17 0 0 1-1.144-.941 2.25 2.25 0 0 1 0-.446 1.168 1.168 0 0 1 1.144-.948Z" /></g><defs><clipPath id="a"><path fill="#fff" d="M0 0h24v24H0z"/></clipPath></defs></svg>

<svg xmlns="http://www.w3.org/2000/svg" width="24" height="24" fill="none"><g clip-path="url(#a)"><g><path fill="#121212" d="M21 3C21.552 3 22 3.448 22 4V20C22 20.552 21.552 21 21 21H3C2.448 21 2 20.552 2 20V4C2 3.448 2.448 3 3 3H21ZM16.792 5.621C15.781 5.621 14.928 6.297 14.659 7.221H12.661L10.201 11.406H8.763C8.495 10.481 7.642 9.806 6.63 9.806C5.404 9.806 4.409 10.8 4.409 12.026C4.409 13.254 5.404 14.248 6.63 14.248C7.642 14.248 8.495 13.572 8.763 12.648H10.234L12.651 16.781H14.669C14.937 17.706 15.79 18.381 16.801 18.381C18.028 18.381 19.023 17.387 19.023 16.16C19.023 14.933 18.028 13.938 16.801 13.938C15.791 13.938 14.937 14.614 14.669 15.538H13.352L11.296 12.002L13.349 8.464H14.659C14.929 9.389 15.781 10.064 16.792 10.064C18.019 10.064 19.014 9.07 19.014 7.843C19.014 6.616 18.019 5.621 16.792 5.621ZM16.803 15.048C17.447 15.048 17.971 15.572 17.971 16.216C17.971 16.86 17.447 17.383 16.803 17.383C16.237 17.383 15.765 16.978 15.659 16.443C15.659 16.443 15.628 16.216 15.659 15.989C15.765 15.454 16.237 15.049 16.803 15.049V15.048ZM6.651 10.838C7.295 10.838 7.819 11.362 7.819 12.006C7.819 12.649 7.295 13.173 6.651 13.173C6.007 13.173 5.484 12.649 5.484 12.006C5.484 11.362 6.007 10.839 6.651 10.839V10.838ZM16.801 6.629C17.445 6.629 17.969 7.152 17.969 7.796C17.969 8.44 17.445 8.964 16.801 8.964C16.236 8.964 15.763 8.558 15.657 8.023C15.631 7.817 15.657 7.577 15.657 7.577C15.763 7.034 16.236 6.629 16.801 6.629Z"/></g></g><defs><clipPath id="a"><rect width="24" height="24" fill="white"/></clipPath></defs></svg>
